icons/modus-solid/mouse.svg

<svg xmlns="http://www.w3.org/2000/svg" width="24" height="24" fill="currentColor" viewBox="0 0 24 24">
  <path d="m12,2c-3.87,0-7,3.13-7,7v6c0,3.87,3.13,7,7,7s7-3.13,7-7v-6c0-3.87-3.13-7-7-7Zm-5,10v-3c0-2.59,1.98-4.69,4.5-4.95v1.04c-.58.21-1,.76-1,1.41v2c0,.65.42,1.2,1,1.41v2.09h-4.5Zm10,0h-4.5v-2.09c.58-.21,1-.76,1-1.41v-2c0-.65-.42-1.2-1-1.41v-1.04c2.52.26,4.5,2.36,4.5,4.95v3Z"/>
</svg>

<svg xmlns="http://www.w3.org/2000/svg" width="24" height="24" fill="currentColor" viewBox="0 0 24 24">
  <path d="M12 2C8.13 2 5 5.13 5 9v6c0 3.87 3.13 7 7 7s7-3.13 7-7V9c0-3.87-3.13-7-7-7M7 12V9c0-2.59 1.98-4.69 4.5-4.95v1.04c-.58.21-1 .76-1 1.41v2c0 .65.42 1.2 1 1.41V12zm10 0h-4.5V9.91c.58-.21 1-.76 1-1.41v-2c0-.65-.42-1.2-1-1.41V4.05C15.02 4.31 17 6.41 17 9z"/>
</svg>
